src/images/nurse_logo_white.svg

<?xml version="1.0" encoding="UTF-8" standalone="no"?>
<!-- Created with Inkscape (http://www.inkscape.org/) -->

<svg
   xmlns:dc="http://purl.org/dc/elements/1.1/"
   xmlns:cc="http://creativecommons.org/ns#"
   xmlns:rdf="http://www.w3.org/1999/02/22-rdf-syntax-ns#"
   xmlns:svg="http://www.w3.org/2000/svg"
   xmlns="http://www.w3.org/2000/svg"
   xmlns:sodipodi="http://sodipodi.sourceforge.net/DTD/sodipodi-0.dtd"
   xmlns:inkscape="http://www.inkscape.org/namespaces/inkscape"
   width="57.587017mm"
   height="68.760529mm"
   viewBox="0 0 204.04848 243.63966"
   id="svg4284"
   version="1.1"
   inkscape:version="0.91 r13725"
   sodipodi:docname="nurse_logo_white.svg">
  <defs
     id="defs4286" />
  <sodipodi:namedview
     id="base"
     pagecolor="#ffffff"
     bordercolor="#666666"
     borderopacity="1.0"
     inkscape:pageopacity="0.0"
     inkscape:pageshadow="2"
     inkscape:zoom="2.8"
     inkscape:cx="-18.25032"
     inkscape:cy="110.72957"
     inkscape:document-units="px"
     inkscape:current-layer="layer1"
     showgrid="true"
     fit-margin-top="0"
     fit-margin-left="0"
     fit-margin-right="0"
     fit-margin-bottom="0"
     inkscape:window-width="1920"
     inkscape:window-height="1027"
     inkscape:window-x="0"
     inkscape:window-y="0"
     inkscape:window-maximized="1"
     inkscape:object-paths="true"
     inkscape:snap-intersection-paths="true"
     inkscape:object-nodes="true"
     inkscape:snap-smooth-nodes="true">
    <inkscape:grid
       type="xygrid"
       id="grid4887"
       originx="7.0240408"
       originy="1.6152228" />
  </sodipodi:namedview>
  <metadata
     id="metadata4289">
    <rdf:RDF>
      <cc:Work
         rdf:about="">
        <dc:format>image/svg+xml</dc:format>
        <dc:type
           rdf:resource="http://purl.org/dc/dcmitype/StillImage" />
        <dc:title></dc:title>
      </cc:Work>
    </rdf:RDF>
  </metadata>
  <g
     inkscape:label="Layer 1"
     inkscape:groupmode="layer"
     id="layer1"
     transform="translate(-999.19426,-73.295187)">
    <path
       style="fill:#feffff;fill-opacity:1;fill-rule:evenodd;stroke:#fe715d;stroke-width:4.04889488;stroke-linecap:round;stroke-linejoin:round;stroke-miterlimit:3.9333334;stroke-dasharray:none;stroke-opacity:1"
       d="m 1041.2183,145.31962 40,-15 -40,-10 -40,15 z"
       id="left_top"
       inkscape:connector-curvature="0"
       sodipodi:nodetypes="ccccc" />
    <path
       style="color:#000000;clip-rule:nonzero;display:inline;overflow:visible;visibility:visible;opacity:1;isolation:auto;mix-blend-mode:normal;color-interpolation:sRGB;color-interpolation-filters:linearRGB;solid-color:#000000;solid-opacity:1;fill:#feffff;fill-opacity:1;fill-rule:evenodd;stroke:#fe715d;stroke-width:4.04889488;stroke-linecap:round;stroke-linejoin:round;stroke-miterlimit:3.9333334;stroke-dasharray:none;stroke-dashoffset:0;stroke-opacity:1;color-rendering:auto;image-rendering:auto;shape-rendering:auto;text-rendering:auto;enable-background:accumulate"
       d="m 1041.2183,220.31962 0,-75 40,-15 0,80 z"
       id="left_right"
       inkscape:connector-curvature="0"
       sodipodi:nodetypes="ccccc" />
    <path
       style="fill:#feffff;fill-opacity:1;fill-rule:evenodd;stroke:#fe715d;stroke-width:4.04889488;stroke-linecap:round;stroke-linejoin:round;stroke-miterlimit:3.9333334;stroke-dasharray:none;stroke-opacity:1"
       d="m 1081.2183,185.31962 40,-15 -40,-10 -40,15 z"
       id="right_top-6"
       inkscape:connector-curvature="0"
       sodipodi:nodetypes="ccccc" />
    <path
       style="color:#000000;clip-rule:nonzero;display:inline;overflow:visible;visibility:visible;opacity:1;isolation:auto;mix-blend-mode:normal;color-interpolation:sRGB;color-interpolation-filters:linearRGB;solid-color:#000000;solid-opacity:1;fill:#feffff;fill-opacity:1;fill-rule:evenodd;stroke:#fe715d;stroke-width:4.04889488;stroke-linecap:round;stroke-linejoin:round;stroke-miterlimit:3.9333334;stroke-dasharray:none;stroke-dashoffset:0;stroke-opacity:1;color-rendering:auto;image-rendering:auto;shape-rendering:auto;text-rendering:auto;enable-background:accumulate"
       d="m 1101.2183,314.91047 0,-214.59085 40,-15.000002 -0.044,216.558022 z"
       id="main_right"
       inkscape:connector-curvature="0"
       sodipodi:nodetypes="ccccc" />
    <path
       style="fill:#feffff;fill-opacity:1;fill-rule:evenodd;stroke:#fe715d;stroke-width:4.04889488;stroke-linecap:round;stroke-linejoin:round;stroke-miterlimit:3.9333334;stroke-dasharray:none;stroke-opacity:1"
       d="m 1101.2183,100.31962 40,-15.000002 -40,-10 -40,15 z"
       id="main_top"
       inkscape:connector-curvature="0"
       sodipodi:nodetypes="ccccc" />
    <path
       style="fill:#feffff;fill-opacity:1;fill-rule:evenodd;stroke:#fe715d;stroke-width:4.04889488;stroke-linecap:round;stroke-linejoin:round;stroke-miterlimit:3.9333334;stroke-dasharray:none;stroke-opacity:1"
       d="m 1161.2183,190.31962 40,-15 -40,-10 -40,15 z"
       id="right_top"
       inkscape:connector-curvature="0"
       sodipodi:nodetypes="ccccc" />
    <path
       style="fill:#feffff;fill-opacity:1;fill-rule:evenodd;stroke:#fe715d;stroke-width:4.04889488;stroke-linecap:round;stroke-linejoin:round;stroke-miterlimit:3.9333334;stroke-dasharray:none;stroke-opacity:1"
       d="m 1141.2183,235.31962 40,-15 -40,-10 -40,15 z"
       id="right_top-3"
       inkscape:connector-curvature="0"
       sodipodi:nodetypes="ccccc" />
    <path
       style="color:#000000;clip-rule:nonzero;display:inline;overflow:visible;visibility:visible;opacity:1;isolation:auto;mix-blend-mode:normal;color-interpolation:sRGB;color-interpolation-filters:linearRGB;solid-color:#000000;solid-opacity:1;fill:#feffff;fill-opacity:1;fill-rule:evenodd;stroke:#fe715d;stroke-width:4.04889488;stroke-linecap:round;stroke-linejoin:round;stroke-miterlimit:3.9333334;stroke-dasharray:none;stroke-dashoffset:0;stroke-opacity:1;color-rendering:auto;image-rendering:auto;shape-rendering:auto;text-rendering:auto;enable-background:accumulate"
       d="m 62.628906,13.210938 0,90.000002 -20,-5.000002 0,-30 -39.9999998,-10 0,30 0,45.000002 39.9999998,10 20,5 0,80 40.000004,9.58984 0,-44.58984 60,15 0,-45 0,-50 -40,-10 -0.0117,49.99609 -19.98828,-4.99609 0,-125.451174 -40.000004,-9.548828 z"
       transform="translate(998.5898,77.109241)"
       id="left_left"
       inkscape:connector-curvature="0" />
    <path
       style="color:#000000;clip-rule:nonzero;display:inline;overflow:visible;visibility:visible;opacity:1;isolation:auto;mix-blend-mode:normal;color-interpolation:sRGB;color-interpolation-filters:linearRGB;solid-color:#000000;solid-opacity:1;fill:#feffff;fill-opacity:1;fill-rule:evenodd;stroke:#fe715d;stroke-width:4.04889488;stroke-linecap:round;stroke-linejoin:round;stroke-miterlimit:3.9333334;stroke-dasharray:none;stroke-dashoffset:0;stroke-opacity:1;color-rendering:auto;image-rendering:auto;shape-rendering:auto;text-rendering:auto;enable-background:accumulate"
       d="m 1161.2183,285.31962 0,-95 40,-15 -0.111,94.42673 z"
       id="right_right"
       inkscape:connector-curvature="0"
       sodipodi:nodetypes="ccccc" />
  </g>
</svg>

<?xml version="1.0" encoding="UTF-8" standalone="no"?>
<!-- Created with Inkscape (http://www.inkscape.org/) -->

<svg
   xmlns:dc="http://purl.org/dc/elements/1.1/"
   xmlns:cc="http://creativecommons.org/ns#"
   xmlns:rdf="http://www.w3.org/1999/02/22-rdf-syntax-ns#"
   xmlns:svg="http://www.w3.org/2000/svg"
   xmlns="http://www.w3.org/2000/svg"
   xmlns:sodipodi="http://sodipodi.sourceforge.net/DTD/sodipodi-0.dtd"
   xmlns:inkscape="http://www.inkscape.org/namespaces/inkscape"
   width="56.44529mm"
   height="67.249245mm"
   viewBox="0 0 200.00299 238.28472"
   id="svg4284"
   version="1.1"
   inkscape:version="0.91 r13725"
   sodipodi:docname="nurse_logo_white.svg">
  <defs
     id="defs4286" />
  <sodipodi:namedview
     id="base"
     pagecolor="#ffffff"
     bordercolor="#666666"
     borderopacity="1.0"
     inkscape:pageopacity="0.0"
     inkscape:pageshadow="2"
     inkscape:zoom="2.8"
     inkscape:cx="-17.645861"
     inkscape:cy="109.1887"
     inkscape:document-units="px"
     inkscape:current-layer="layer1"
     showgrid="true"
     fit-margin-top="0"
     fit-margin-left="0"
     fit-margin-right="0"
     fit-margin-bottom="0"
     inkscape:window-width="1920"
     inkscape:window-height="1027"
     inkscape:window-x="0"
     inkscape:window-y="0"
     inkscape:window-maximized="1"
     inkscape:object-paths="true"
     inkscape:snap-intersection-paths="true"
     inkscape:object-nodes="true"
     inkscape:snap-smooth-nodes="true">
    <inkscape:grid
       type="xygrid"
       id="grid4887"
       originx="7.6285"
       originy="0.074348583" />
  </sodipodi:namedview>
  <metadata
     id="metadata4289">
    <rdf:RDF>
      <cc:Work
         rdf:about="">
        <dc:format>image/svg+xml</dc:format>
        <dc:type
           rdf:resource="http://purl.org/dc/dcmitype/StillImage" />
        <dc:title />
      </cc:Work>
    </rdf:RDF>
  </metadata>
  <g
     inkscape:label="Layer 1"
     inkscape:groupmode="layer"
     id="layer1"
     transform="translate(-998.5898,-77.109249)">
    <path
       style="fill:#feffff;fill-opacity:1;fill-rule:evenodd;stroke:#fe715d;stroke-width:4.04889488;stroke-linecap:round;stroke-linejoin:round;stroke-miterlimit:3.9333334;stroke-dasharray:none;stroke-opacity:1"
       d="m 1041.2183,145.31962 40,-15 -40,-10 -40,15 z"
       id="left_top"
       inkscape:connector-curvature="0"
       sodipodi:nodetypes="ccccc" />
    <path
       style="color:#000000;clip-rule:nonzero;display:inline;overflow:visible;visibility:visible;opacity:1;isolation:auto;mix-blend-mode:normal;color-interpolation:sRGB;color-interpolation-filters:linearRGB;solid-color:#000000;solid-opacity:1;fill:#feffff;fill-opacity:1;fill-rule:evenodd;stroke:#fe715d;stroke-width:4.04889488;stroke-linecap:round;stroke-linejoin:round;stroke-miterlimit:3.9333334;stroke-dasharray:none;stroke-dashoffset:0;stroke-opacity:1;color-rendering:auto;image-rendering:auto;shape-rendering:auto;text-rendering:auto;enable-background:accumulate"
       d="m 1041.2183,220.31962 0,-75 40,-15 0,80 z"
       id="left_right"
       inkscape:connector-curvature="0"
       sodipodi:nodetypes="ccccc" />
    <path
       style="fill:#feffff;fill-opacity:1;fill-rule:evenodd;stroke:#fe715d;stroke-width:4.04889488;stroke-linecap:round;stroke-linejoin:round;stroke-miterlimit:3.9333334;stroke-dasharray:none;stroke-opacity:1"
       d="m 1081.2183,185.31962 40,-15 -40,-10 -40,15 z"
       id="right_top-6"
       inkscape:connector-curvature="0"
       sodipodi:nodetypes="ccccc" />
    <path
       style="color:#000000;clip-rule:nonzero;display:inline;overflow:visible;visibility:visible;opacity:1;isolation:auto;mix-blend-mode:normal;color-interpolation:sRGB;color-interpolation-filters:linearRGB;solid-color:#000000;solid-opacity:1;fill:#feffff;fill-opacity:1;fill-rule:evenodd;stroke:#fe715d;stroke-width:4.04889488;stroke-linecap:round;stroke-linejoin:round;stroke-miterlimit:3.9333334;stroke-dasharray:none;stroke-dashoffset:0;stroke-opacity:1;color-rendering:auto;image-rendering:auto;shape-rendering:auto;text-rendering:auto;enable-background:accumulate"
       d="m 1101.2183,314.91047 0,-214.59085 40,-15.000002 -0.044,216.558022 z"
       id="main_right"
       inkscape:connector-curvature="0"
       sodipodi:nodetypes="ccccc" />
    <path
       style="fill:#feffff;fill-opacity:1;fill-rule:evenodd;stroke:#fe715d;stroke-width:4.04889488;stroke-linecap:round;stroke-linejoin:round;stroke-miterlimit:3.9333334;stroke-dasharray:none;stroke-opacity:1"
       d="m 1101.2183,100.31962 40,-15.000002 -40,-10 -40,15 z"
       id="main_top"
       inkscape:connector-curvature="0"
       sodipodi:nodetypes="ccccc" />
    <path
       style="fill:#feffff;fill-opacity:1;fill-rule:evenodd;stroke:#fe715d;stroke-width:4.04889488;stroke-linecap:round;stroke-linejoin:round;stroke-miterlimit:3.9333334;stroke-dasharray:none;stroke-opacity:1"
       d="m 1161.2183,190.31962 40,-15 -40,-10 -40,15 z"
       id="right_top"
       inkscape:connector-curvature="0"
       sodipodi:nodetypes="ccccc" />
    <path
       style="fill:#feffff;fill-opacity:1;fill-rule:evenodd;stroke:#fe715d;stroke-width:4.04889488;stroke-linecap:round;stroke-linejoin:round;stroke-miterlimit:3.9333334;stroke-dasharray:none;stroke-opacity:1"
       d="m 1141.2183,235.31962 40,-15 -40,-10 -40,15 z"
       id="right_top-3"
       inkscape:connector-curvature="0"
       sodipodi:nodetypes="ccccc" />
    <path
       style="color:#000000;clip-rule:nonzero;display:inline;overflow:visible;visibility:visible;opacity:1;isolation:auto;mix-blend-mode:normal;color-interpolation:sRGB;color-interpolation-filters:linearRGB;solid-color:#000000;solid-opacity:1;fill:#feffff;fill-opacity:1;fill-rule:evenodd;stroke:#fe715d;stroke-width:4.04889488;stroke-linecap:round;stroke-linejoin:round;stroke-miterlimit:3.9333334;stroke-dasharray:none;stroke-dashoffset:0;stroke-opacity:1;color-rendering:auto;image-rendering:auto;shape-rendering:auto;text-rendering:auto;enable-background:accumulate"
       d="M 62.628906 13.210938 L 62.628906 103.21094 L 42.628906 98.210938 L 42.628906 68.210938 L 2.6289062 58.210938 L 2.6289062 88.210938 L 2.6289062 133.21094 L 42.628906 143.21094 L 62.628906 148.21094 L 62.628906 228.21094 L 102.62891 237.80078 L 102.62891 193.21094 L 162.62891 208.21094 L 162.62891 163.21094 L 162.62891 113.21094 L 122.62891 103.21094 L 122.61719 153.20703 L 102.62891 148.21094 L 102.62891 22.759766 L 62.628906 13.210938 z "
       transform="translate(998.5898,77.109241)"
       id="left_left" />
    <path
       style="color:#000000;clip-rule:nonzero;display:inline;overflow:visible;visibility:visible;opacity:1;isolation:auto;mix-blend-mode:normal;color-interpolation:sRGB;color-interpolation-filters:linearRGB;solid-color:#000000;solid-opacity:1;fill:#feffff;fill-opacity:1;fill-rule:evenodd;stroke:#fe715d;stroke-width:4.04889488;stroke-linecap:round;stroke-linejoin:round;stroke-miterlimit:3.9333334;stroke-dasharray:none;stroke-dashoffset:0;stroke-opacity:1;color-rendering:auto;image-rendering:auto;shape-rendering:auto;text-rendering:auto;enable-background:accumulate"
       d="m 1161.2183,285.31962 0,-95 40,-15 -0.111,94.42673 z"
       id="right_right"
       inkscape:connector-curvature="0"
       sodipodi:nodetypes="ccccc" />
  </g>
</svg>
